public/logos/okcupid.svg

<svg width="90" height="90" viewBox="0 0 90 90" fill="none" xmlns="http://www.w3.org/2000/svg">
<path d="M11.9285 25.9776C11.9285 18.258 18.1865 12 25.9061 12H64.511C72.2307 12 78.4886 18.258 78.4886 25.9776V45.2801H11.9285V25.9776Z" fill="#FE80BF"/>
<path d="M11.9285 45.2801H78.4886V64.5825C78.4886 72.3022 72.2307 78.5602 64.511 78.5602H25.9061C18.1865 78.5602 11.9285 72.3022 11.9285 64.5825V45.2801Z" fill="#FF2681"/>
<path d="M71.5667 43.6826H78.4889V50.3387H71.5667V43.6826Z" fill="white"/>
<path d="M36.3644 37.7533L25.2764 33.9152L12.5537 40.5254L11.9141 55.4514L24.2104 60.0715L35.7246 55.8068L36.3644 37.7533V37.7533Z" fill="#003399"/>
<path d="M70.9077 34.4839L61.2413 37.3269L58.1849 41.4494L57.5452 50.6893L59.18 58.0103L74.3193 59.7161L78.4417 52.8216L70.1968 46.7801L77.2334 43.937L78.4417 37.3269L70.9077 34.4839V34.4839Z" fill="#4074D9"/>
<path d="M39.1364 24.7463L35.2983 57.2283H34.9429L54.1336 59.7161L58.9668 56.0912L57.332 45.9983L59.6776 36.6872L48.8028 35.1235L49.2293 26.0968L39.1364 24.7464V24.7463Z" fill="#003399"/>
<path d="M25.5731 41.3982C22.5265 41.3982 20.8276 44.4955 20.8276 48.6412C20.8276 51.6391 21.6771 52.9879 24.1245 52.9879C26.8705 52.9879 28.9709 50.34 28.9709 45.7951C28.9709 42.8489 28.1708 41.3982 25.5731 41.3982V41.3982Z" fill="white"/>
<path d="M69.408 52.638C70.9079 52.638 72.6564 52.2879 74.5556 51.5896C75.2549 51.9397 75.6041 52.9386 75.6041 53.688C75.6041 56.2352 73.3059 57.7343 67.6616 57.7343C61.6169 57.7343 58.3695 55.2858 58.3695 48.9416C58.3695 41.0483 63.1655 36.6034 70.7083 36.6034C75.4547 36.6034 76.6028 38.0522 76.6028 39.9498C76.6028 40.9988 76.2527 41.5992 75.6041 42.0974C74.4561 41.7485 73.2564 41.5486 71.4084 41.5486C67.8108 41.5486 65.7633 43.6468 65.7633 48.1427C65.7633 51.4393 66.762 52.638 69.408 52.638V52.638ZM51.3385 57.6334C49.3906 57.6334 48.6914 56.9334 47.6414 54.6868L44.2951 47.8421L43.0462 57.2339C42.098 57.584 40.5495 57.6334 39.4995 57.6334C37.3023 57.6334 36.3034 56.7356 36.3034 54.8349C36.3034 54.2871 36.4024 53.338 36.6021 51.9892L39.3995 30.7091C39.7998 27.5626 40.8481 26.8122 43.3469 26.8122C44.7441 26.8122 46.1442 27.1623 46.9928 27.8127L44.6452 45.3963C50.59 37.1534 51.139 36.653 54.1361 36.653C57.2824 36.653 58.3819 37.5528 58.3819 39.3505C58.3819 40.3995 58.0824 41.0988 57.5823 41.6486C56.8336 41.5992 56.084 41.5992 55.4847 41.5992C54.4356 41.5992 53.8373 41.8493 50.8887 45.894L54.2853 52.0387C54.5354 52.4382 54.7846 52.7883 55.3355 52.7883C55.7843 52.7883 56.5349 52.7367 57.1333 52.5885C57.6325 52.9386 57.8323 53.6386 57.8323 54.2871C57.8323 56.6329 55.4847 57.6334 51.3385 57.6334V57.6334ZM23.1755 57.7343C17.4816 57.7343 13.734 55.2347 13.734 48.8922C13.734 41.4983 18.2302 36.5522 25.9738 36.5522C33.2159 36.5522 35.7642 40.1495 35.7642 45.4951C35.7642 53.0394 31.1681 57.7343 23.1755 57.7343V57.7343ZM79.9396 49.5188C78.763 47.8794 76.453 48.4571 75.9168 47.3855C75.6418 46.8356 75.8662 45.885 77.7083 45.9696C81.0232 46.1218 81.9499 41.7182 81.9499 39.3693C81.9499 36.4678 80.5856 31.6001 71.4476 31.6001C67.9706 31.6001 64.9089 32.3516 62.3506 33.7182C62.1068 33.8364 61.8577 33.9482 61.6173 34.0707C61.3216 34.2212 60.9634 34.1833 60.7129 33.9657C59.3899 32.8162 57.3244 31.9579 54.0958 31.9579C53.4103 31.9579 52.7821 31.9955 52.1962 32.0761C51.6423 32.1526 51.1717 31.6904 51.2456 31.136L51.9016 26.2248C51.9213 26.0779 51.9018 25.9283 51.8452 25.7912C51.7886 25.6542 51.6968 25.5345 51.5792 25.4442L49.8091 24.0871C47.5739 22.373 44.7756 22.1171 43.3068 22.1171C38.2733 22.1171 35.3779 24.8088 34.7026 30.1166L34.381 32.5607C34.3082 33.1127 33.7308 33.4454 33.2206 33.2219C31.1825 32.3285 28.7452 31.8572 25.9338 31.8572C15.8047 31.8572 9 38.7029 9 48.8922C9 57.3671 14.2838 62.4293 23.1354 62.4293C26.8206 62.4293 30.0479 61.6088 32.684 60.101C33.008 59.9156 33.398 59.98 33.6656 60.2398C35.041 61.5748 37.0326 62.3285 39.4594 62.3285C41.7107 62.3285 43.3544 62.1096 44.6319 61.638L46.1189 61.0896C46.3709 60.9967 46.6462 61.037 46.8734 61.1805C48.0011 61.8926 49.4289 62.3285 51.2985 62.3285C54.7577 62.3285 57.1567 61.6672 58.8194 60.7026C59.0773 60.5527 59.3815 60.5459 59.6444 60.6869C60.2219 60.996 60.8429 61.261 61.4977 61.4898C63.3926 62.232 65.6179 62.6265 68.1793 62.6265C79.2287 62.6265 81.496 57.1837 81.496 54.0017C81.496 52.4348 81.1084 50.8404 80.0574 49.6387C80.0241 49.6006 79.9754 49.5686 79.9396 49.5188Z" fill="white"/>
</svg>

<svg width="90" height="90" viewBox="0 0 90 90" fill="none" xmlns="http://www.w3.org/2000/svg">
  <path d="M11.928 25.978c0-7.72 6.258-13.978 13.978-13.978h38.605c7.72 0 13.978 6.258 13.978 13.978V45.28h-66.56V25.978Z" fill="#FE80BF"/>
  <path d="M11.928 45.28h66.56v19.302c0 7.72-6.257 13.978-13.977 13.978H25.906c-7.72 0-13.977-6.258-13.977-13.978V45.28Z" fill="#FF2681"/>
  <path d="M71.567 43.683h6.922v6.656h-6.922v-6.656Z" fill="#fff"/>
  <path d="m36.364 37.753-11.088-3.838-12.722 6.61-.64 14.926 12.296 4.62 11.515-4.264.64-18.054Z" fill="#039"/>
  <path d="m70.908 34.484-9.667 2.843-3.056 4.122-.64 9.24 1.635 7.321 15.14 1.706 4.122-6.894-8.245-6.042 7.036-2.843 1.209-6.61-7.534-2.843Z" fill="#4074D9"/>
  <path d="m39.136 24.746-3.838 32.482h-.355l19.19 2.488 4.834-3.625-1.635-10.093 2.346-9.31-10.875-1.565.426-9.026-10.093-1.35Z" fill="#039"/>
  <path d="M25.573 41.398c-3.047 0-4.745 3.097-4.745 7.243 0 2.998.85 4.347 3.297 4.347 2.745 0 4.846-2.648 4.846-7.193 0-2.946-.8-4.397-3.398-4.397Z" fill="#fff"/>
  <path d="M69.408 52.638c1.5 0 3.248-.35 5.148-1.048.699.35 1.048 1.349 1.048 2.098 0 2.547-2.298 4.046-7.942 4.046-6.045 0-9.293-2.448-9.293-8.792 0-7.894 4.797-12.339 12.34-12.339 4.746 0 5.894 1.45 5.894 3.347 0 1.049-.35 1.65-.999 2.147-1.148-.349-2.348-.548-4.196-.548-3.597 0-5.645 2.098-5.645 6.594 0 3.296.999 4.495 3.645 4.495Zm-18.07 4.995c-1.947 0-2.647-.7-3.697-2.946l-3.346-6.845-1.249 9.392c-.948.35-2.496.4-3.547.4-2.197 0-3.196-.898-3.196-2.8 0-.547.1-1.496.3-2.845L39.4 30.71c.4-3.146 1.448-3.897 3.947-3.897 1.397 0 2.797.35 3.646 1l-2.348 17.584c5.945-8.243 6.494-8.743 9.491-8.743 3.146 0 4.246.9 4.246 2.697 0 1.05-.3 1.749-.8 2.299-.748-.05-1.498-.05-2.097-.05-1.05 0-1.648.25-4.596 4.295l3.396 6.145c.25.4.5.75 1.05.75.45 0 1.2-.052 1.798-.2.5.35.7 1.05.7 1.698 0 2.346-2.348 3.346-6.494 3.346Zm-28.163.101c-5.693 0-9.441-2.5-9.441-8.842 0-7.394 4.496-12.34 12.24-12.34 7.242 0 9.79 3.598 9.79 8.943 0 7.544-4.596 12.24-12.589 12.24ZM79.94 49.52c-1.177-1.64-3.487-1.062-4.023-2.133-.275-.55-.05-1.501 1.791-1.416 3.315.152 4.242-4.252 4.242-6.6 0-2.902-1.364-7.77-10.502-7.77-3.477 0-6.54.752-9.097 2.118-.244.118-.493.23-.734.353a.815.815 0 0 1-.904-.105c-1.323-1.15-3.389-2.008-6.617-2.008-.686 0-1.314.038-1.9.118a.836.836 0 0 1-.95-.94l.656-4.911a.843.843 0 0 0-.323-.78l-1.77-1.358c-2.235-1.714-5.033-1.97-6.502-1.97-5.034 0-7.93 2.692-8.604 8l-.322 2.444a.835.835 0 0 1-1.16.66c-2.038-.892-4.476-1.364-7.287-1.364C15.804 31.857 9 38.703 9 48.892c0 8.475 5.284 13.537 14.135 13.537 3.686 0 6.913-.82 9.549-2.328a.814.814 0 0 1 .982.139c1.375 1.335 3.367 2.088 5.793 2.088 2.252 0 3.895-.218 5.173-.69l1.487-.548a.855.855 0 0 1 .754.09c1.128.713 2.556 1.148 4.425 1.148 3.46 0 5.859-.66 7.521-1.625a.835.835 0 0 1 .825-.016c.578.309 1.199.574 1.854.803 1.895.742 4.12 1.136 6.681 1.136 11.05 0 13.317-5.442 13.317-8.624 0-1.567-.388-3.162-1.439-4.363-.033-.038-.082-.07-.117-.12Z" fill="#fff"/>
</svg>
